X:92
T: Jiemei xiu xiangdai
N: C0115
O: China,Hubei, Changyang
S: I, 455]
N: verschiedene Varianten zu dieser Weise existieren im Sueden.
N: +++Band 20 absuchen +++
R: Xiaodiao, Mengjiangn diao, Laba diao. Fun shenghuo]
M: 2/4
L: 1/32
K: F
F4D2C2F4G4 | A3cA2G2A8 | G2A2c4A2c2A4 | G2GAG2F2G8 |
G3AG2F2D2F2G2A2 | F2FGF2D2F8 |
G2A2G2F2D4D2E2 | D2DED2C2D8 |
D2F2G2A2F2GAF2D2 | C6D2C8

@@@ Tune index: 6093
